docs/.gitbook/assets/icon-weights-16@dark.svg

<svg width="32" height="32" viewBox="0 0 16 16" fill="none" xmlns="http://www.w3.org/2000/svg">
<rect x="0" y="0" width="16" height="16" fill="#181c1f"/>
<path fill-rule="evenodd" clip-rule="evenodd" d="M1.38565 4.59187C1.6377 4.26421 2.03783 4 2.53567 4H3.46433C3.96217 4 4.3623 4.26421 4.61435 4.59187C4.86577 4.91872 5 5.33824 5 5.77138L5 6.89608C5.07031 6.86549 5.14419 6.83455 5.22146 6.80364C5.9062 6.52975 6.87779 6.25 8 6.25C9.12221 6.25 10.0938 6.52975 10.7785 6.80364C10.8558 6.83455 10.9297 6.86549 11 6.89608V5.77138C11 5.33824 11.1342 4.91872 11.3856 4.59187C11.6377 4.26421 12.0378 4 12.5357 4H13.4643C13.9622 4 14.3623 4.26421 14.6143 4.59187C14.8658 4.91872 15 5.33824 15 5.77138V10.2286C15 10.6618 14.8658 11.0813 14.6143 11.4081C14.3623 11.7358 13.9622 12 13.4643 12H12.5357C12.0378 12 11.6377 11.7358 11.3857 11.4081C11.1342 11.0813 11 10.6618 11 10.2286V8.57275C10.9672 8.55345 10.9254 8.52955 10.8752 8.50217C10.7254 8.42042 10.5023 8.30871 10.2215 8.19636C9.6562 7.97025 8.87779 7.75 8 7.75C7.12221 7.75 6.3438 7.97025 5.77854 8.19636C5.49766 8.30871 5.27465 8.42042 5.12476 8.50217C5.07458 8.52955 5.03279 8.55345 5 8.57275L5 10.2286C5 10.6618 4.86577 11.0813 4.61435 11.4081C4.3623 11.7358 3.96217 12 3.46433 12H2.53567C2.03783 12 1.6377 11.7358 1.38565 11.4081C1.13423 11.0813 1 10.6618 1 10.2286L1 5.77138C1 5.33824 1.13423 4.91872 1.38565 4.59187ZM2.57459 5.50644C2.54165 5.54925 2.5 5.64042 2.5 5.77138L2.5 10.2286C2.5 10.3596 2.54165 10.4507 2.57459 10.4936C2.57642 10.496 2.57813 10.4981 2.57971 10.5H3.42029C3.42186 10.4981 3.42358 10.496 3.42541 10.4936C3.45835 10.4507 3.5 10.3596 3.5 10.2286L3.5 5.77138C3.5 5.64042 3.45835 5.54925 3.42541 5.50644C3.42357 5.50405 3.42186 5.50191 3.42029 5.5H2.57971C2.57814 5.50191 2.57643 5.50405 2.57459 5.50644ZM2.59333 5.48594C2.59334 5.48598 2.59288 5.48637 2.59193 5.487L2.59333 5.48594ZM3.40667 5.48594C3.40668 5.48591 3.40715 5.48622 3.40807 5.487L3.40667 5.48594ZM3.40667 10.5141C3.40667 10.514 3.40713 10.5136 3.40808 10.513L3.40667 10.5141ZM2.59333 10.5141C2.59332 10.5141 2.59285 10.5138 2.59193 10.513L2.59333 10.5141ZM12.5746 5.50644C12.5417 5.54925 12.5 5.64042 12.5 5.77138V10.2286C12.5 10.3596 12.5417 10.4507 12.5746 10.4936C12.5764 10.496 12.5781 10.4981 12.5797 10.5H13.4203C13.4219 10.4981 13.4236 10.496 13.4254 10.4936C13.4583 10.4507 13.5 10.3596 13.5 10.2286V5.77138C13.5 5.64042 13.4583 5.54925 13.4254 5.50644C13.4236 5.50405 13.4219 5.50191 13.4203 5.5H12.5797C12.5781 5.50191 12.5764 5.50405 12.5746 5.50644ZM12.5933 5.48594C12.5933 5.48598 12.5929 5.48636 12.592 5.48698L12.5933 5.48594ZM13.4067 5.48594C13.4067 5.4859 13.4071 5.48622 13.4081 5.487L13.4067 5.48594ZM13.4067 10.5141C13.4067 10.514 13.4071 10.5136 13.408 10.513L13.4067 10.5141ZM12.5933 10.5141C12.5933 10.5141 12.5928 10.5138 12.5919 10.513L12.5933 10.5141Z" fill="#fff"/>
</svg>

<svg xmlns="http://www.w3.org/2000/svg" width="32" height="32" fill="none" viewBox="0 0 16 16"><path fill="#181c1f" d="M0 0h16v16H0z"/><path fill="#fff" fill-rule="evenodd" d="M1.386 4.592C1.638 4.264 2.038 4 2.536 4h.928c.498 0 .898.264 1.15.592S5 5.338 5 5.772v1.124l.221-.092A7.6 7.6 0 0 1 8 6.25a7.55 7.55 0 0 1 3 .646V5.771c0-.433.134-.852.386-1.18S12.038 4 12.536 4h.928c.498 0 .898.264 1.15.592s.386.746.386 1.18v4.457c0 .433-.134.852-.386 1.18s-.652.591-1.15.591h-.928c-.498 0-.898-.264-1.15-.592a1.94 1.94 0 0 1-.386-1.18V8.574l-.125-.07a6 6 0 0 0-.653-.307A6 6 0 0 0 8 7.75a6 6 0 0 0-2.221.446A6 6 0 0 0 5 8.573v1.656c0 .433-.134.852-.386 1.18S3.962 12 3.464 12h-.928c-.498 0-.898-.264-1.15-.592A1.94 1.94 0 0 1 1 10.228V5.772c0-.433.134-.852.386-1.18m1.189.914a.45.45 0 0 0-.075.265v4.458a.45.45 0 0 0 .08.271h.84l.005-.006a.45.45 0 0 0 .075-.265V5.77a.45.45 0 0 0-.08-.271h-.84zm.018-.02-.001.001zm.814 0 .001.001zm9.168.02a.45.45 0 0 0-.075.265v4.458a.45.45 0 0 0 .08.271h.84l.005-.006a.45.45 0 0 0 .075-.265V5.77a.45.45 0 0 0-.08-.271h-.84zm.832-.02.001.001zm-.814 5.028" clip-rule="evenodd"/></svg>
